X: 385
T: Tingfang diao
L: 1/8
M: 2/4
K: F
c c/ d/ f e/ d/ [I:setbarnb 1]| 
c> d A G | 
c c/ d/ f e/ d/ | 
c> d A G | 
Ac2f | 
d> c A G | 
A/ c/ G A/ c/ A/ D/ | 
F> DF2 | 
A A/ F/ G A | 
c c f A | 
G A G/ A/ G/ F/ | 
G/ F/D2F | 
G G/ c/ F D | 
C4 |]

@@@ Tune index: 9259
